icon-themes/breeze_svg/cmd/lc_prevrecord.svg

<svg viewBox="0 0 24 24" xmlns="http://www.w3.org/2000/svg"><path d="m15.349609 4-5.6269528 6.125-1.7226562 1.875 1.7226562 1.875 5.6269528 6.125.650391-.707031-5.626953-6.125-1.0742189-1.167969 1.0742189-1.167969 5.626953-6.1249998z" fill="#4d4d4d"/></svg>

<svg xmlns="http://www.w3.org/2000/svg" viewBox="0 0 24 24">
 <path 
     style="fill:#4d4d4d" 
     d="M 15.349609 4 L 9.7226562 10.125 L 8 12 L 9.7226562 13.875 L 15.349609 20 L 16 19.292969 L 10.373047 13.167969 L 9.2988281 12 L 10.373047 10.832031 L 16 4.7070312 L 15.349609 4 z "
     />
 </svg>
